**kern
*clefG2
*k[b-e-a-d-g-c-f-]
*M3/4
=1-
2b
16cc
16r
(16cc#
16dd)
=2
16r
8cc
2cc
16dd
=3
2dd#
16dd
16r
8cc-
=4
16dd
4ee
4ee
8ff
16r
=5
16ff
4gg
8ff
16ff
4ff
=6
16ee
4.r
8ff
8ee
16dd
=7
4ee
8.ff
16ee
4ee
=8
8.ff
4ff
4ee
16ee
=9
4ff#
8.ee
8ee-
8dd
16cc
=10
8dd#
16ee
8ee
8ff#
4r
16ff
=11
*-